X:0713
M:2/4
L:1/8
Q:1/4=128
K:G
z   |AABB|dc A2   |BBcc|ed BG/B/|ggff|(e/f/g/e/) d2|(c/B/A/G/) (B/A/G/F/)|Ggg:|

